assets/user-fill-1.svg

<svg xmlns="http://www.w3.org/2000/svg" fill="none" viewBox="0 0 22 23">
  <path stroke="#2A2238" stroke-width="1.5" d="M18.2549 15.9627c1.7372 1.6917 2.7826 3.9253 2.966 6.2873H.779073c.183425-2.362 1.228807-4.5956 2.966007-6.2873.8178-.7965 1.78346-.9775 3.01035-.9201.53598.0251 1.09052.0938 1.69266.1684.10033.0124.20198.025.30508.0375.70723.0863 1.46823.1698 2.24683.1698.7786 0 1.5396-.0835 2.2468-.1698.1031-.0125.2048-.0251.3051-.0375.6022-.0746 1.1567-.1433 1.6927-.1684 1.2269-.0574 2.1925.1237 3.0103.9201Zm-.6715-9.41636c0 3.18261-2.655 5.79636-5.9723 5.79636-3.3172 0-5.97218-2.61375-5.97218-5.79636S8.2939.75 11.6111.75c3.3173 0 5.9723 2.61373 5.9723 5.79634Z"/>
</svg>

<svg width="22" height="23" viewBox="0 0 22 23" fill="none" xmlns="http://www.w3.org/2000/svg">
<path d="M18.2549 15.9627C19.9921 17.6544 21.0375 19.888 21.2209 22.25L11 22.25L0.779073 22.25C0.962498 19.888 2.00788 17.6544 3.74508 15.9627C4.56288 15.1662 5.52854 14.9852 6.75543 15.0426C7.29141 15.0677 7.84595 15.1364 8.44809 15.211C8.54842 15.2234 8.65007 15.236 8.75317 15.2485C9.4604 15.3348 10.2214 15.4183 11 15.4183C11.7786 15.4183 12.5396 15.3348 13.2468 15.2485C13.3499 15.236 13.4516 15.2234 13.5519 15.211C14.1541 15.1364 14.7086 15.0677 15.2446 15.0426C16.4715 14.9852 17.4371 15.1663 18.2549 15.9627Z" stroke="#2A2238" stroke-width="1.5"/>
<path d="M17.5834 6.54634C17.5834 9.72895 14.9284 12.3427 11.6111 12.3427C8.2939 12.3427 5.63892 9.72895 5.63892 6.54634C5.63892 3.36373 8.2939 0.75 11.6111 0.75C14.9284 0.75 17.5834 3.36373 17.5834 6.54634Z" stroke="#2A2238" stroke-width="1.5"/>
</svg>
